X:1
T:Title
%%score { ( 1 3 ) | ( 2 4 ) }
L:1/8
M:6/8
K:Bb
V:1 treble nm="Grand Piano"
V:3 treble 
V:2 bass 
V:4 bass 
V:1
 z3 z2[Q:1/4=100] E | z3 .G3 | z3 .B3 | z3 .e3 | d6 | z3 .G3 | z3 .B3 | z3 .d3 | %8
[M:5/8] [DB]-[DB]- [DB]3 |[M:1/8] [GB] |[M:3/4] [Ge]2 [GB][GB] [^FA][GB] | [_Ac]3 [GB]2 [EG] | %12
 [DB]2 [DF][DF] [_D=E][=DF] | [F_A]3 [EG]2 [GB] | [Ge]2 [GB][GB] [^FA][GB] | [_Ac]3 B2 [B,EG] | %16
 B2 z .[_Ac]3 |[M:5/8] [Ge]-[Ge]- [Ge]3 |] %18
V:2
 z6 | z G,[G,B,] z G,[G,B,] | z [G,B,][G,B,] z G,[G,B,] | z [G,B,][G,B,] z G,[G,B,] | %4
 [B,,F,B,]3 .[B,,F,B,]3 | z G,[G,B,] z G,[G,B,] | z [G,B,][G,B,] z G,[G,B,] | %7
 z [F,B,D][F,B,D] z [F,A,][F,A,E] |[M:5/8] [B,,F,B,]-[B,,F,B,]- [B,,F,B,]3 |[M:1/8] [E,E] | %10
[M:3/4] [E,B,]2 [E,E] [E,E]2 [E,E] | [E,E]4- [E,E][E,B,] | [B,,B,]2 [B,,B,] [B,,B,]2 [B,,B,] | %13
 [E,B,]4- [E,B,][E,E] | [E,B,]2 [E,E] [E,E]2 [E,E] | z2 z G2 E, | z D .B,,2 C[B,,B,] | %17
[M:5/8] [E,B,]-[E,B,]- [E,B,]3 |] %18
V:3
 x6 | EB,E z B,G | GEG z B,B | BGB z B,e | D3 D2 E | EB,E z B,G | GEG z B,B | cFB z Ec | %8
[M:5/8] x5 |[M:1/8] x |[M:3/4] x6 | x6 | x6 | x6 | x6 | x6 | [B,D]F [EGB]D z [_Ad] |[M:5/8] x5 |] %18
V:4
 x6 | [E,,E,]3 [E,,E,]3 | [E,,E,]3 [E,,E,]3 | [E,,E,]3 [E,,E,]3 | x6 | [E,,E,]3 [E,,E,]3 | %6
 [E,,E,]3 [E,,E,]3 | F,,3 F,,3 |[M:5/8] x5 |[M:1/8] x |[M:3/4] x6 | x6 | x6 | x6 | x6 | [E,E]6 | %16
 B,,2 z .B,,3 |[M:5/8] x5 |] %18

